X:168
T:What care I for the Minister
T:Coma leam fein am Ministear
R:Slip Jig
S:Simon Fraser Collection
N:No.42
O:Scottish
M:9/8
L:1/8
K:C
G|E/F/GG G2c GEC|E/F/GG GAB c2e|E/F/GG G2c GEC|D2_B BFD F2D|
E/F/GG G2c GEC|E/F/GG GAB c2e|E/F/GG G2c GEC|D2_B BFD F2||g|
ecg eca gec|ecg eca f2a|ecg eca gec|_B2_b bfd f2g|ecg eca gec|ecg eca f2
a|
gfe dcB cGE|D/E/FD _BFD F2||

